2 Export/Icons/Brands/Dropbox.svg

<svg xmlns="http://www.w3.org/2000/svg" xmlns:xlink="http://www.w3.org/1999/xlink" width="24" height="24" viewBox="0 0 24 24">
  <defs>
    <path id="dropbox-a" d="M7.5,4 L3,6.8665 L7.5,9.733 L12.00075,6.8665 L7.5,4 Z M16.5,4 L12,6.8665 L16.5,9.733 L21,6.8665 L16.5,4 Z M3,12.60025 L7.5,15.46675 L12.00075,12.60025 L7.5,9.73375 L3,12.60025 L3,12.60025 Z M16.5,9.73375 L12,12.60025 L16.5,15.46675 L21,12.60025 L16.5,9.73375 L16.5,9.73375 Z M7.5,16.423 L12.00075,19.2895 L16.50075,16.423 L12.00075,13.5565 L7.5,16.423 Z"/>
  </defs>
  <g fill="none" fill-rule="evenodd">
    <polygon points="0 0 24 0 24 24 0 24"/>
    <mask id="dropbox-b" fill="#fff">
      <use xlink:href="#dropbox-a"/>
    </mask>
    <use fill="#000" xlink:href="#dropbox-a"/>
    <g fill="#000" mask="url(#dropbox-b)">
      <rect width="24" height="24"/>
    </g>
  </g>
</svg>

<svg xmlns="http://www.w3.org/2000/svg" xmlns:xlink="http://www.w3.org/1999/xlink" width="24" height="24" viewBox="0 0 24 24">
  <defs>
    <path id="dropbox-a" d="M7.5 4L3 6.867l4.5 2.866L12 6.866 7.5 4zm9 0L12 6.867l4.5 2.866L21 6.866 16.5 4zM3 12.6l4.5 2.867L12 12.6 7.5 9.734 3 12.6zm13.5-2.866L12 12.6l4.5 2.867L21 12.6l-4.5-2.866zm-9 6.689L12 19.29l4.5-2.867-4.5-2.866-4.5 2.866z"/>
  </defs>
  <g fill="none" fill-rule="evenodd">
    <polygon points="0 0 24 0 24 24 0 24"/>
    <mask id="dropbox-b" fill="#fff">
      <use xlink:href="#dropbox-a"/>
    </mask>
    <use fill="#000" xlink:href="#dropbox-a"/>
    <g fill="#000" mask="url(#dropbox-b)">
      <rect width="24" height="24"/>
    </g>
  </g>
</svg>
